svgs/samsung_pay_mini.svg

<svg width="192" height="192" viewBox="0 0 192 192" fill="none" xmlns="http://www.w3.org/2000/svg">
<path d="M113.141 161.949V136.864M113.141 123.486L113.141 136.864M140.734 161.949V136.864C140.734 120.977 113.141 124.322 113.141 136.864" stroke="black" stroke-width="10" stroke-linecap="round" stroke-linejoin="round"/>
<path d="M25.3446 120.977V135.192M25.3446 161.113V135.192M51.2655 161.113V135.192M51.2655 135.192C51.2655 121.814 23.6723 122.65 25.3446 135.192M51.2655 135.192C51.2655 121.814 78.0226 121.814 77.1864 135.192V161.113" stroke="black" stroke-width="10" stroke-linecap="round" stroke-linejoin="round"/>
<path d="M96.4181 123.486V161.113" stroke="black" stroke-width="10" stroke-linecap="round" stroke-linejoin="round"/>
<circle cx="96" cy="110" r="3.5" stroke="black" stroke-width="5"/>
<path d="M157.458 125.158V162.785" stroke="black" stroke-width="10" stroke-linecap="round" stroke-linejoin="round"/>
<circle cx="157" cy="111" r="3.5" stroke="black" stroke-width="5"/>
<path d="M170 43.2147L151.605 87.8098M142.407 110.107L151.605 87.8098M151.605 87.8098L130.701 43.2147" stroke="black" stroke-width="12" stroke-linecap="round" stroke-linejoin="round"/>
<path d="M22 94.2203V66.6271M22 66.6271V30C22 29.4477 22.4477 29 23 29H41.4406C51.9466 29 60.4633 37.5167 60.4633 48.0226V48.0226C60.4633 58.6904 51.6924 67.2726 41.0272 67.0408L22 66.6271Z" stroke="black" stroke-width="12" stroke-linecap="round" stroke-linejoin="round"/>
<path d="M113.141 43.2147V93.3842" stroke="black" stroke-width="12" stroke-linecap="round" stroke-linejoin="round"/>
<ellipse cx="90.565" cy="67.4633" rx="20.904" ry="21.7401" stroke="black" stroke-width="12"/>
</svg>

<svg width="192" height="192" viewBox="0 0 192 192" fill="none" xmlns="http://www.w3.org/2000/svg"><path d="M113.141 161.949v-25.085m0-13.378v13.378m27.593 25.085v-25.085c0-15.887-27.593-12.542-27.593 0M25.345 120.977v14.215m0 25.921v-25.921m25.92 25.921v-25.921m0 0c0-13.378-27.593-12.542-25.92 0m25.92 0c0-13.378 26.758-13.378 25.921 0v25.921M96.418 123.486v37.627" stroke="#000" stroke-width="10" stroke-linecap="round" stroke-linejoin="round"/><circle cx="96" cy="110" r="3.5" stroke="#000" stroke-width="5"/><path d="M157.458 125.158v37.627" stroke="#000" stroke-width="10" stroke-linecap="round" stroke-linejoin="round"/><circle cx="157" cy="111" r="3.5" stroke="#000" stroke-width="5"/><path d="M170 43.215 151.605 87.81m-9.198 22.297 9.198-22.297m0 0-20.904-44.595M22 94.22V66.627m0 0V30a1 1 0 0 1 1-1h18.44c10.507 0 19.023 8.517 19.023 19.023v0c0 10.667-8.77 19.25-19.436 19.018L22 66.627ZM113.141 43.215v50.17" stroke="#000" stroke-width="12" stroke-linecap="round" stroke-linejoin="round"/><ellipse cx="90.565" cy="67.463" rx="20.904" ry="21.74" stroke="#000" stroke-width="12"/></svg>
